X:1
T:Si pour aymer
T:Si pour aymer
T:Pierre de Manchicourt
C:Pierre de Manchicourt
%%score [ 1 [ 2 3 ] 4 ]
L:1/8
Q:1/4=90
M:2/2
K:F
V:1 treble nm="Superius" snm="S"
V:2 treble-8 nm="Tenor 1" snm="T 1"
V:3 treble-8 nm="Tenor 2" snm="T 2"
V:4 bass nm="Bassus" snm="B"
V:1
 z8 | z8 | d4 d2 d2 |: A2 A2 c2 c2 | BA d4 c2 | d2 d4 c2 | B2 A4 G2 | F3 G A2 F2 | G3 A B2 A2- | %9
w: ||Si pour ay-|mer et de- si-||rer, je con-|gnois mon faict|em- * * *||
w: |||qui te peult ti-||rer le fai-|soit o- res|re- * * *||
 A2 G2 A2 z B | A2 G2 F2 G2 | D2 E2 FD d2 | c2 B3 A A2- | A2 G4 F2 | G2 B3 A G2- | G2 F2 G4 |1 %16
w: * pi- rer, cest|es- tran- ge fa-|chon de fai- * *||||* * re,|
w: * ti- rer, cest|bien loing de me|sa- tis- fai- * *|||||
 z2 d2 d2 d2 :|2 A2 G4 F2 || G8 | z8 | z2 G2 B2 A2 | G2 F2 G3 F |"^b" E4 D2 F2 | F2 F2 G2 A2 | %24
w: si lan- gueur||||Mais pour te|di- re mon af-|fai- r'et à|quoy je suis cous-|
w: ||re.-||||||
 B2 A4 G2 | A2 A2 B2 G2 | AG FE F2 G2 | E2 F4 E2 | D2 F2 E2 D2- | D2 C2 D2 z A | B2 A2 G2 F2 | %31
w: * * tu-|mier, quant je vois|qu'on _ _ _ me veult|def- fai- *||* * re, je|veulx com- men- cer|
w: |||||||
 c2 d2 c3 B | A2 G4 F2 | G2 z d e2 d2 | c2 B2 A2 G2 | B2 A3 G B2 | A2 G4 F2 | G8 |] %38
w: le pre- * *||mier, je veulx com-|men cer le pre-|||mier.|
w: |||||||
V:2
 z8 | z4 g4 | g2 g2 d2 d2 |: f2 f2 ed ef | gf ed e4 | d4 z2 g2- | g2 f4 e2 | d2 f2 e2 d2- | %8
w: |Si|pour ay- mer et|de- si- * * * *||rer, je|_ con- gnois|mon faict em- *|
w: |||peult ti- * * * *||rer, le|_ fai- soit|o- res re- *|
 d2 c2 d2 z f | e2 d2 c2 d2 | A2 d3 c B2 | AB cB/c/ d2 B2 | c2 d3 e f2 | e2 c2 d3 c | BA B2 G2 B2 | %15
w: * pi- rer, cest|es- tran- ge fa-|chon de _ _|fai- * * * * * *||||
w: * ti- rer, cest|bien loing de me|sa- tis- fai- *|||||
 A4 z2 g2 |1 g2 g2 d2 d2 :|2 e2 c2 d4- || d4 z2 d2- | d2 f2 e2 d2- | d2 c2 d3 c | B2 A2 G2 B2- | %22
w: re, si|lan- gueur qui te||* Mais-|_ pour te di-|* re mon _|_ af- fai- *|
w: ||* * re.|_||||
 B2 A2 B2 A2 | d2 d2 e2 f2- | f2 f2 d4 | z2 d4 e2 | c2 d4 B2 | cB AG A4 | B2 c2 B2 G2 | %29
w: * * r'et à|quoy je suis cous-|* tu- mier,|quant je|vois qu'on me-|veult _ _ _ def-|fai- * * *|
w: |||||||
 A2 z A B2 A2 | G2 F2 c2 d2 | ec f4 e2 | d2 z G B2 A2 | G2 F2 c2 f2- | f2 d2 f2 e2 | f6 d2 | %36
w: re,- je- veulx com-|men- cer le pre-||mier, je veulx com-|men- cer le pre-|||
w: |||||||
 e2 c2 d4 | d8 |] %38
w: |mier.|
w: ||
V:3
 z4 d4 | d2 d2 G2 c2 | B2 G3 A B2 |: c2 d2 c2 BA | G2 B2 A4 | z2 B2 A2 G2 | d4 c2 B2 | %7
w: Si|pour ay- mer et|de- si- * *||* * rer,|je con- gnois|mon faict em-|
w: ||||* * rer,|le fai- soit|o- res re-|
 AG AB cA B2- | BA G4 F2 | G4 z4 | z2 B2 A2 G2 | F2 G2 DE FG | A2 DE FG AB | cB AG A4 | G4 z2 d2 | %15
w: pi- * * * * * *||rer,|cest es- tran-|ge fa- chon _ _ _|de fai- * * * * *||re, si|
w: |* * * ti-|rer,|cest bien loing|de me sa- * * *|tis- fai- * * * * *|||
 d2 d2 G2 c2 |1 B2 G3 A B2 :|2 cB AG A4 || G4 z2 G2 | B2 A2 B3 A | G2 G2 F3 E/D/ | d4 B4 | %22
w: lan- gueur qui te|peult ti- * *||* Mais|pour te di- re|mon af- fai- * *||
w: |||. *||||
 c4 z2 F2 | A2 A2 B2 c2 | d2 c2 B4 | A4 z4 | A4 B2 G2 | A2 F2 D2 E2 | FG AF GF ED | E4 D4 | %30
w: r'et à|quoy je suis cous-|* * tu-|mier,|quant je vois|qu'on me veult def-|fai- * * * * * * *|* re,|
w: ||||||||
 z4 z2 A2- | A2 B2 A2 G2 | F2 c2 d4 | c2 B2 AA B2 | A2 G2 F2 c2 | d4 c2 B2 | cB AG A4 | G8 |] %38
w: je|_ veulx com- men-|cer le pre-|* * mier, je veulx|com- men- cer le|pre- * *||mier.|
w: ||||||||
V:4
 G,4 G,2 G,2 | D,2 F,2 E,2 C,2 | G,F, G,A, B,2 G,2 |: F,2 D,2 A,4 | z8 | G,4 F,2 E,2 | %6
w: Si pour ay-|mer et de- si-||* * rer,||je con- gnois|
w: |||* * rer,||le fai- soit|
 D,3 E, F,2 G,2 | D,4 C,2 B,,2 |"^b" E,4 D,4 | z2 B,2 A,2 G,2 | F,2 G,2 D,2 G,,2 | D,2 C,2 B,,4 | %12
w: mon _ _ faict|em- pi- *|* rer,|cest es- trage|fa- chon de fai-||
w: o- * * res|re- * *|ti- rer,|cest bien- loing|de me sa- tis-|fai- * *|
 A,,2 G,,2 D,4 | C,2 E,2 D,4 | z2 G,2 G,2 G,2 | D,2 F,2 E,2 C,2 |1 G,F, G,A, B,2 G,2 :|2 %17
w: * * re,|_ _ re,|si lan- gueur|qui te peult ti-||
w: |||||
 C,2 E,2 D,4 || z2 G,2 B,3 A, | G,2 F,2 G,2 D,2 | E,4 D,4 |"^b" G,,2 D,2 E,3 D, | C,4 B,,2 D,2 | %23
w: |Mais pour te|di- re mon af-|fai- *|re, mon _ af-|fai- r'et à|
w: * * re.-||||||
 D,2 D,2 G,2 F,2 | B,2 F,2 G,4 | D,4 z4 | z2 D,4 E,2 | C,2 D,4 C,2 | B,,2 A,,2 G,,2 B,,2 | %29
w: quoy je suis cous-|* * tu-|mier,|quant je|vois qu'on me|veult def- fai- *|
w: ||||||
 A,,4 D,4 | z2 D,2 E,2 D,2 | C,2 B,,2 F,2 C,2 |"^#" D,2 E,2 D,2 z D, | E,2 D,2 C,2 B,,2 | %34
w: * re,|je veulx con-|men- cer le pre-|* * mier, je|veulx com- men cer|
w: |||||
 F,2 G,2 D,2 E,2 | B,,C, D,E, F,2 G,2 | C,2 E,2 D,4 | G,,8 |] %38
w: le pre- * *|||mier.|
w: ||||

